X:10542
T:Mazurka de Bergerac
R:mazurka
C:trad.
A:Prigord
O:France
Z:S. Piron
M:3/4
L:1/8
Q:1/4=180
K:C
FE|:C4 EG|c4 Bc|d2 dcBc|d3 E FD|C4 EG|c4 Bc|dedcBd|1c4 FE:|2c4 ed|
|:cBcdec|f4 e2|dc Bc df|e2c2 ed|cBcdec|f4e2|dedcBd|1c4 ed:|2c4 FD||
